X: 4
T: Clee Hill
M: 4/4
L: 1/8
R: march 
K: DMaj
A/G/ |\
F3 G AB/A/ FG | A/B/d cB A2 F2 | E3 F G3 A | Bc/B/ AG FD E/F/G |
F3 G A2 F>G | AdcB A2 F2 | E2 EF G2 GG/A/ | BG A/B/c d3 e ||
fA/A/ fA f3 A/A/ | ABcd c2 B2 | gB/B/ gB g3 B | AB/B/ cd e/f/e/c BA |
fA/A/ fA/A/ f3 A | A/B/d cd c2 B2 | B>cdB/B/ A/B/d ff/g/ | f/g/f/e/ B/B/c d3 |]
From what I've read, I suspect I picked this up, and this way with it, somewhere around Shrewsbury, most likely to do with dance music and dear Mr. John Kirkpatrick...  Though, there are even earlier possibilities...  Q: 1/4 for me, dance sanity, would be from 120 - 130 bpm...
